assets/svg/1F62A.svg

<svg xmlns="http://www.w3.org/2000/svg" viewBox="0 0 64 64" enable-background="new 0 0 64 64"><path fill="#fbb041" d="M63.951,31.978c0,17.66-14.313,31.976-31.976,31.976C14.313,63.953,0,49.638,0,31.978     C0,14.315,14.313,0,31.976,0C49.638,0,63.951,14.315,63.951,31.978z"/><g opacity=".987"><path fill="#e79d3c" d="m15.218 41.22c-5.668-12.159-5.921-25.24-.798-36.06-8.681 5.715-14.42 15.538-14.42 26.711 0 17.662 14.313 31.974 31.976 31.974.316 0 .622-.037.936-.047-7.33-6.169-13.508-13.593-17.694-22.578"/></g><g fill="#633d19"><path d="m10.759 25.307c1.927-4.279 5.152-5.952 9.35-6.483 2.251-.286 2.631.294 4.414-.63.732-.375.424-1.086-.357-1.196-7.196-1.042-14.03 2.486-14.886 7.689-.099.566.385 1.71 1.479.62"/><path d="m9.935 26.772l0 0c-.466 0-.895-.204-1.205-.573-.373-.444-.549-1.106-.446-1.687.818-4.961 6.559-8.711 13.348-8.711.893 0 1.793.065 2.678.193.847.121 1.499.688 1.619 1.412.091.536-.11 1.258-.945 1.687-1.069.553-1.776.666-2.568.666l-.908-.014c-.348 0-.754.016-1.27.081-4.388.555-6.945 2.319-8.556 5.895l-.21.302c-.498.497-1.015.749-1.537.749m3.786-6.742c-1.07.711-1.943 1.568-2.551 2.528.722-1 1.567-1.842 2.551-2.528"/><path d="m52.47 25.307c-1.927-4.279-5.151-5.952-9.351-6.483-2.251-.286-2.63.294-4.413-.63-.732-.375-.425-1.086.357-1.196 7.196-1.042 14.03 2.486 14.886 7.689.1.566-.386 1.71-1.479.62"/><path d="m53.3 26.772c-.521 0-1.039-.253-1.537-.749l-.209-.302c-1.611-3.576-4.168-5.34-8.555-5.895-.518-.065-.925-.081-1.272-.081l-.907.014c-.792 0-1.499-.113-2.574-.667-.829-.427-1.03-1.149-.939-1.685.12-.725.772-1.292 1.621-1.412.883-.128 1.784-.193 2.676-.193 6.789 0 12.53 3.75 13.35 8.721.101.571-.074 1.232-.448 1.677-.313.369-.74.572-1.206.572m-3.359-6.428c.663.515 1.26 1.108 1.795 1.779-.483-.653-1.088-1.249-1.795-1.779"/><path d="m36.09 30.739c0-3.157 4.26.379 8.02.379 3.763 0 8.02-3.537 8.02-.379 0 3.156-4.26 6.564-8.02 6.564-3.761.0001-8.02-3.407-8.02-6.564"/><path d="m11.821 30.739c0-3.157 4.26.379 8.02.379s8.02-3.537 8.02-.379c0 3.156-4.26 6.564-8.02 6.564s-8.02-3.407-8.02-6.564"/><path d="m21.426 52.632c-.63.719-.241 1.919.796 1.919 1.197 0 5.494-1.812 9.755-1.812 4.771 0 9.495 1.812 9.756 1.812 1.037 0 1.418-1.2.802-1.919-5.717-6.592-15.401-6.592-21.11 0"/></g><path fill="#28a6de" d="m61.13 41.829c2.675 3.875 2.252 8.792-.936 10.992-3.187 2.196-7.931.842-10.604-3.03-2.67-3.875-6.671-15.202-3.483-17.401 3.187-2.197 12.358 5.573 15.02 9.442"/><path fill="#58c5e8" d="m46.35 32.22c3.412-1.69 12.248 5.822 14.873 9.629 2.69 3.902 2.268 8.859-.939 11.07-1.465 1.01-3.255 1.24-5.02.856 1.215-8-2.36-16.244-8.911-21.56"/></svg>

<?xml version="1.0" encoding="UTF-8" standalone="no"?>
<!-- Generator: Adobe Illustrator 16.0.0, SVG Export Plug-In . SVG Version: 6.00 Build 0)  -->

<svg
   xmlns:dc="http://purl.org/dc/elements/1.1/"
   xmlns:cc="http://creativecommons.org/ns#"
   xmlns:rdf="http://www.w3.org/1999/02/22-rdf-syntax-ns#"
   xmlns:svg="http://www.w3.org/2000/svg"
   xmlns="http://www.w3.org/2000/svg"
   xmlns:sodipodi="http://sodipodi.sourceforge.net/DTD/sodipodi-0.dtd"
   xmlns:inkscape="http://www.inkscape.org/namespaces/inkscape"
   version="1.1"
   id="Layer_1"
   x="0px"
   y="0px"
   width="64px"
   height="64px"
   viewBox="0 0 64 64"
   enable-background="new 0 0 64 64"
   xml:space="preserve"
   inkscape:version="0.48.5 r10040"
   sodipodi:docname="1F62A.svg"
   inkscape:export-filename="D:\TESTINGEMOJI\SVGTEST\1F62A.png"
   inkscape:export-xdpi="90"
   inkscape:export-ydpi="90"><metadata
   id="metadata4445"><rdf:RDF><cc:Work
       rdf:about=""><dc:format>image/svg+xml</dc:format><dc:type
         rdf:resource="http://purl.org/dc/dcmitype/StillImage" /><dc:title></dc:title></cc:Work></rdf:RDF></metadata><defs
   id="defs4443" /><sodipodi:namedview
   pagecolor="#ffffff"
   bordercolor="#666666"
   borderopacity="1"
   objecttolerance="10"
   gridtolerance="10"
   guidetolerance="10"
   inkscape:pageopacity="0"
   inkscape:pageshadow="2"
   inkscape:window-width="640"
   inkscape:window-height="480"
   id="namedview4441"
   showgrid="false"
   inkscape:zoom="3.6875"
   inkscape:cx="32"
   inkscape:cy="32"
   inkscape:window-x="431"
   inkscape:window-y="245"
   inkscape:window-maximized="0"
   inkscape:current-layer="Layer_1" />
<g
   id="g4379">
	<g
   id="g4381">
		<g
   id="g4383">
			<path
   fill="#FBB041"
   d="M63.951,31.978c0,17.66-14.313,31.976-31.976,31.976C14.313,63.953,0,49.638,0,31.978     C0,14.315,14.313,0,31.976,0C49.638,0,63.951,14.315,63.951,31.978z"
   id="path4385" />
		</g>
	</g>
	<g
   opacity="0.9866"
   id="g4387">
		<g
   id="g4389">
			<g
   id="g4391">
				<path
   fill="#E79D3C"
   d="M15.218,41.224C9.55,29.065,9.297,15.982,14.42,5.164C5.739,10.879,0,20.702,0,31.875      c0,17.662,14.313,31.974,31.976,31.974c0.316,0,0.622-0.037,0.936-0.047C25.582,57.633,19.404,50.209,15.218,41.224z"
   id="path4393" />
			</g>
		</g>
	</g>
	<g
   id="g4395">
		<g
   id="g4397">
			<g
   id="g4399">
				<path
   fill="#633D19"
   d="M10.759,25.307c1.927-4.279,5.152-5.952,9.35-6.483c2.251-0.286,2.631,0.294,4.414-0.63      c0.732-0.375,0.424-1.086-0.357-1.196c-7.196-1.042-14.027,2.486-14.886,7.689C9.181,25.253,9.665,26.397,10.759,25.307z"
   id="path4401" />
				<path
   fill="#633D19"
   d="M9.935,26.772L9.935,26.772c-0.466,0-0.895-0.204-1.205-0.573c-0.373-0.444-0.549-1.106-0.446-1.687      c0.818-4.961,6.559-8.711,13.348-8.711c0.893,0,1.793,0.065,2.678,0.193c0.847,0.121,1.499,0.688,1.619,1.412      c0.091,0.536-0.11,1.258-0.945,1.687c-1.069,0.553-1.776,0.666-2.568,0.666l-0.908-0.014c-0.348,0-0.754,0.016-1.27,0.081      c-4.388,0.555-6.945,2.319-8.556,5.895l-0.21,0.302C10.974,26.52,10.457,26.772,9.935,26.772z M13.721,20.03      c-1.07,0.711-1.943,1.568-2.551,2.528C11.892,21.557,12.737,20.716,13.721,20.03z"
   id="path4403" />
			</g>
		</g>
	</g>
	<g
   id="g4405">
		<g
   id="g4407">
			<g
   id="g4409">
				<path
   fill="#633D19"
   d="M52.472,25.307c-1.927-4.279-5.151-5.952-9.351-6.483c-2.251-0.286-2.63,0.294-4.413-0.63      c-0.732-0.375-0.425-1.086,0.357-1.196c7.196-1.042,14.026,2.486,14.886,7.689C54.051,25.253,53.565,26.397,52.472,25.307z"
   id="path4411" />
				<path
   fill="#633D19"
   d="M53.296,26.772c-0.521,0-1.039-0.253-1.537-0.749l-0.209-0.302c-1.611-3.576-4.168-5.34-8.555-5.895      c-0.518-0.065-0.925-0.081-1.272-0.081l-0.907,0.014c-0.792,0-1.499-0.113-2.574-0.667c-0.829-0.427-1.03-1.149-0.939-1.685      c0.12-0.725,0.772-1.292,1.621-1.412c0.883-0.128,1.784-0.193,2.676-0.193c6.789,0,12.53,3.75,13.35,8.721      c0.101,0.571-0.074,1.232-0.448,1.677C54.189,26.569,53.762,26.772,53.296,26.772z M49.937,20.344      c0.663,0.515,1.26,1.108,1.795,1.779C51.249,21.47,50.644,20.874,49.937,20.344z"
   id="path4413" />
			</g>
		</g>
	</g>
	<g
   id="g4415">
		<path
   fill="#633D19"
   d="M36.087,30.739c0-3.157,4.26,0.379,8.021,0.379c3.763,0,8.022-3.537,8.022-0.379    c0,3.156-4.26,6.564-8.022,6.564C40.347,37.304,36.087,33.896,36.087,30.739z"
   id="path4417" />
		<path
   fill="#633D19"
   d="M11.821,30.739c0-3.157,4.26,0.379,8.021,0.379s8.021-3.537,8.021-0.379c0,3.156-4.26,6.564-8.021,6.564    S11.821,33.896,11.821,30.739z"
   id="path4419" />
	</g>
	<g
   id="g4421">
		<g
   id="g4423">
			<path
   fill="#633D19"
   d="M21.426,52.632c-0.63,0.719-0.241,1.919,0.796,1.919c1.197,0,5.494-1.812,9.755-1.812     c4.771,0,9.495,1.812,9.756,1.812c1.037,0,1.418-1.2,0.802-1.919C36.818,46.04,27.134,46.04,21.426,52.632z"
   id="path4425" />
		</g>
	</g>
	<g
   id="g4427">
		<g
   id="g4429">
			<g
   id="g4431">
				<path
   fill="#28A6DE"
   d="M61.131,41.829c2.675,3.875,2.252,8.792-0.936,10.992c-3.187,2.196-7.931,0.842-10.604-3.033      c-2.67-3.875-6.671-15.202-3.483-17.401C49.295,30.19,58.466,37.96,61.131,41.829z"
   id="path4433" />
			</g>
		</g>
		<g
   id="g4435">
			<g
   id="g4437">
				<path
   fill="#58C5E8"
   d="M46.353,32.22c3.412-1.69,12.248,5.822,14.873,9.629c2.69,3.902,2.268,8.859-0.939,11.075      c-1.465,1.006-3.255,1.24-5.023,0.856C56.479,45.779,52.904,37.536,46.353,32.22z"
   id="path4439" />
			</g>
		</g>
	</g>
</g>
</svg>
